X: 01042
T: FLEUR DE LIS
C: Bob McQuillen Aug'74
B: Bob's Note Book 1 #42
R: schottische
Z: 2019 John Chambers <jc:trillian.mit.edu>
M: C
L: 1/8
K: G
B>c \
| d>ed>B G2g>a | b>ab>a g2g>f | e>fg>e d>gf>g | (3(aba) (3(gfe) d2B>c |
| d>ed>B G2g>a | b>ab>a g2g>f | e>fg>e f>ga>f | g2b2 g2 ||
|| B>c \
| d2G2 G2A>B | c2E2 E2A>G | F>EF>G A>Bc>d | e2d>^c d2B>=c |
| d2G2 G2A>B | c2E2 E2A>G | F>EF>G A>cB>A | G2B2 G2 |]
%%begintext align
%% For friends at Camp Fleur de Lis, Fitzwilliam, N.H.
%% -- Happy Memories + love from Uncle Bob.
%% [Image of bus]
%% Hi, Lady Sue!
%% Hi, Boo-Boo!
%% Hi ... ... ...
%%endtext

%%sep 1 1 500

%%sep 1 1 500

